X: 1216
T: Johnny's Wedding
M:C|
L:1/8
R:Reel
B:O'Neill's 1216
N:Collected by F. O'Neill
Z:Transcribed by Trish O'Neil
K:Gm
(GA) | BGdG BGGB | AFcF AFFA |1 BGdG BGGB | AF (3D=E^FG2 :|2 GBAc Bdce | dg^fag2 ||
(ga) | bgaf fdd=e | fdcA AGFD | bgag fddc | eg^fag2(ga) |
bgag fdd=e | fdcA AGFD | GBAc Bdce | dg^fag2 |]


